X:32
T:Miss Nisbet of Dirleton's (reel)
C:Nathaniel Gow
K:D
M:C|
L:1/8
V:1
e | A<ATe<=c BGGB | AAeA Tc>def | gde=c BGGB | A<ATe>B cAA :|
(^g | a)eeg BGG(^g | a)eef g>baf | Tg>de>=c BGGB | A<ATe>B | cAA |
(^g | a)ee=g BGG(^g | a)eef gbaf | gde=c BdGB | Aaef cAA |]
V:2 clef=bass middle=d
L:1/4
z/ | aagg | aaaa | aagg | aeAA/ :|
z/ | aagg | aaaa | b=c'gg | aeAA/ |
z/ | aagg | aaaa | b=c'gg | aeAA/ |]